X:831
T:Cliffs of Moher, The
S:Donna ?----?, Wiston Lodge Mar 06
Z:Nigel Gatherer
M:6/8
L:1/8
K:Ador
e | aga bag | eaf  g2e | c2A BAG | EAG  FED |
    aga bag | eaf  g2e | c2A BAG | EFG  A3 :|
z | e3  dBA | e=fe dBA | GAB dBA | GAB  dBd |
    e3  dBA | e=fe dBA | GAB dBA | EFG  A3  |
    e3  dBA | e=fe dBA | GAB dBA | GAB  dBd |
    e3  dee | cee  Bee | EFG BAG | EDB, A,3 |
<end>
<start>
